melody-of-light/img/icons/tag.svg

<svg width="28" height="28" viewBox="0 0 28 28" fill="none" xmlns="http://www.w3.org/2000/svg">
<path d="M27 0H16.0003C15.7351 5.85921e-05 15.4809 0.105466 15.2934 0.293019L0.293779 15.2926C-0.0969722 15.6829 -0.0973238 16.316 0.293017 16.7068C0.293251 16.707 0.293544 16.7073 0.293779 16.7075L11.2935 27.7072C11.684 28.0976 12.3169 28.0976 12.7074 27.7072L27.707 12.7076C27.8948 12.5199 28.0002 12.2652 28 11.9997V0.999992C28 0.447702 27.5523 0 27 0ZM21.0002 8.99975C19.8957 8.99975 19.0002 8.10434 19.0002 6.99982C19.0002 5.8953 19.8957 4.9999 21.0002 4.9999C22.1047 4.9999 23.0001 5.8953 23.0001 6.99982C23.0001 8.10434 22.1047 8.99975 21.0002 8.99975Z" fill="#EC863D"/>
</svg>

<svg width="28" height="28" fill="none" xmlns="http://www.w3.org/2000/svg"><path d="M27 0H16a1 1 0 00-.707.293l-15 15a1 1 0 000 1.414l11 11a1 1 0 001.414 0l15-15A1 1 0 0028 12V1a1 1 0 00-1-1zm-6 9a2 2 0 110-4 2 2 0 010 4z" fill="#EC863D"/></svg>
